img/logo.svg

<svg width="106" height="34" viewBox="0 0 106 34" fill="none" xmlns="http://www.w3.org/2000/svg">
<path d="M25.4545 4.16545L6.36364 4C5.68854 4 5.04109 4.26818 4.56373 4.74555C4.08636 5.22291 3.81818 5.87036 3.81818 6.54545L3.81818 25.6364" stroke="#F3C469" stroke-linejoin="round"/>
<path d="M26.5618 10.3636L26.7273 29.4545C26.7273 30.1296 26.4591 30.7771 25.9817 31.2545C25.5044 31.7318 24.8569 32 24.1818 32L5.0909 32" stroke="#F3C469" stroke-linejoin="round"/>
<path d="M21.4709 4L21.6364 23.0909C21.6364 23.766 21.3682 24.4135 20.8908 24.8908C20.4134 25.3682 19.766 25.6364 19.0909 25.6364L-1.17518e-05 25.6364" stroke="#F3C469" stroke-linejoin="round"/>
<path d="M39.576 3.672C39.8427 3.68267 40.184 3.69333 40.6 3.704C41.016 3.71467 41.432 3.72 41.848 3.72C42.3707 3.72 42.8667 3.71467 43.336 3.704C43.8053 3.69333 44.136 3.688 44.328 3.688C45.7573 3.688 46.8187 3.98133 47.512 4.568C48.216 5.15467 48.568 5.912 48.568 6.84C48.568 7.224 48.4987 7.62933 48.36 8.056C48.2213 8.472 47.9813 8.86133 47.64 9.224C47.2987 9.576 46.8293 9.864 46.232 10.088C45.6453 10.312 44.8933 10.424 43.976 10.424H42.376V10.104H43.816C44.488 10.104 45 9.96 45.352 9.672C45.7147 9.384 45.9547 9.00533 46.072 8.536C46.2 8.06667 46.264 7.56 46.264 7.016C46.264 6.00267 46.0987 5.24533 45.768 4.744C45.4373 4.24267 44.8667 3.992 44.056 3.992C43.6187 3.992 43.3307 4.08267 43.192 4.264C43.064 4.44533 43 4.81333 43 5.368V13.24C43 13.6453 43.0427 13.9493 43.128 14.152C43.2133 14.3547 43.3787 14.488 43.624 14.552C43.8693 14.616 44.2213 14.6533 44.68 14.664V15C44.3707 14.9787 43.9707 14.968 43.48 14.968C42.9893 14.9573 42.4827 14.952 41.96 14.952C41.512 14.952 41.08 14.9573 40.664 14.968C40.248 14.968 39.8853 14.9787 39.576 15V14.68C39.928 14.6587 40.1893 14.616 40.36 14.552C40.5413 14.488 40.6587 14.36 40.712 14.168C40.776 13.976 40.808 13.688 40.808 13.304V5.368C40.808 4.97333 40.776 4.68533 40.712 4.504C40.6587 4.312 40.5413 4.184 40.36 4.12C40.1893 4.04533 39.928 4.00267 39.576 3.992V3.672ZM54.2823 3.672C54.5489 3.68267 54.8903 3.69333 55.3063 3.704C55.7223 3.71467 56.1383 3.72 56.5543 3.72C57.0769 3.72 57.5729 3.71467 58.0423 3.704C58.5116 3.69333 58.8423 3.688 59.0343 3.688C59.9943 3.688 60.7836 3.80533 61.4023 4.04C62.0316 4.264 62.5009 4.584 62.8103 5C63.1196 5.416 63.2743 5.90667 63.2743 6.472C63.2743 6.824 63.2049 7.18667 63.0663 7.56C62.9276 7.92267 62.6876 8.25867 62.3463 8.568C62.0049 8.87733 61.5356 9.13333 60.9383 9.336C60.3516 9.528 59.5996 9.624 58.6823 9.624H57.1463V9.304H58.5223C59.1943 9.304 59.7063 9.18667 60.0583 8.952C60.4209 8.70667 60.6609 8.38667 60.7783 7.992C60.9063 7.58667 60.9703 7.13867 60.9703 6.648C60.9703 5.80533 60.8049 5.15467 60.4743 4.696C60.1436 4.22667 59.5729 3.992 58.7623 3.992C58.3249 3.992 58.0369 4.08267 57.8983 4.264C57.7703 4.44533 57.7063 4.81333 57.7063 5.368V13.304C57.7063 13.688 57.7383 13.976 57.8023 14.168C57.8663 14.36 57.9836 14.488 58.1543 14.552C58.3356 14.616 58.5969 14.6587 58.9383 14.68V15C58.6716 14.9787 58.3303 14.968 57.9143 14.968C57.4983 14.9573 57.0769 14.952 56.6503 14.952C56.1703 14.952 55.7223 14.9573 55.3063 14.968C54.8903 14.968 54.5489 14.9787 54.2823 15V14.68C54.6343 14.6587 54.8956 14.616 55.0663 14.552C55.2476 14.488 55.3649 14.36 55.4183 14.168C55.4823 13.976 55.5143 13.688 55.5143 13.304V5.368C55.5143 4.97333 55.4823 4.68533 55.4183 4.504C55.3649 4.312 55.2476 4.184 55.0663 4.12C54.8956 4.04533 54.6343 4.00267 54.2823 3.992V3.672ZM57.1463 9.352C57.6476 9.37333 58.0636 9.4 58.3943 9.432C58.7356 9.45333 59.0236 9.47467 59.2583 9.496C59.5036 9.51733 59.7223 9.544 59.9143 9.576C60.7996 9.66133 61.4503 9.86933 61.8663 10.2C62.2929 10.52 62.5756 11.0107 62.7143 11.672L63.0823 13.32C63.1783 13.7573 63.2796 14.072 63.3863 14.264C63.5036 14.4453 63.6689 14.5307 63.8823 14.52C64.0316 14.52 64.1596 14.4827 64.2663 14.408C64.3729 14.3227 64.4796 14.2107 64.5863 14.072L64.8103 14.264C64.5436 14.5947 64.2609 14.84 63.9623 15C63.6636 15.1493 63.2849 15.224 62.8263 15.224C62.3143 15.224 61.8823 15.1067 61.5303 14.872C61.1783 14.6267 60.9383 14.168 60.8103 13.496L60.5063 11.896C60.4209 11.448 60.3196 11.0533 60.2023 10.712C60.0956 10.3707 59.9463 10.104 59.7543 9.912C59.5623 9.72 59.2796 9.624 58.9063 9.624H57.1783L57.1463 9.352ZM75.5424 3.448C76.6304 3.448 77.585 3.67733 78.4064 4.136C79.2277 4.59467 79.8624 5.256 80.3104 6.12C80.769 6.97333 80.9984 8.01333 80.9984 9.24C80.9984 10.4347 80.7637 11.48 80.2944 12.376C79.8357 13.272 79.1904 13.9707 78.3584 14.472C77.537 14.9733 76.593 15.224 75.5264 15.224C74.4384 15.224 73.4837 14.9947 72.6624 14.536C71.841 14.0773 71.201 13.416 70.7424 12.552C70.2944 11.688 70.0704 10.648 70.0704 9.432C70.0704 8.23733 70.305 7.192 70.7744 6.296C71.2437 5.4 71.889 4.70133 72.7104 4.2C73.5317 3.69867 74.4757 3.448 75.5424 3.448ZM75.4784 3.736C74.849 3.736 74.2997 3.976 73.8304 4.456C73.3717 4.936 73.0144 5.59733 72.7584 6.44C72.5024 7.28267 72.3744 8.25867 72.3744 9.368C72.3744 10.4987 72.5184 11.4853 72.8064 12.328C73.0944 13.16 73.4837 13.8053 73.9744 14.264C74.465 14.712 75.0037 14.936 75.5904 14.936C76.2197 14.936 76.7637 14.696 77.2224 14.216C77.6917 13.736 78.0544 13.0747 78.3104 12.232C78.5664 11.3787 78.6944 10.4027 78.6944 9.304C78.6944 8.16267 78.5504 7.176 78.2624 6.344C77.9744 5.512 77.585 4.872 77.0944 4.424C76.6144 3.96533 76.0757 3.736 75.4784 3.736ZM95.3596 3.672C95.317 4.13067 95.285 4.57333 95.2636 5C95.253 5.42667 95.2476 5.752 95.2476 5.976C95.2476 6.22133 95.253 6.45067 95.2636 6.664C95.2743 6.87733 95.285 7.064 95.2956 7.224H94.9276C94.8103 6.424 94.6503 5.79467 94.4476 5.336C94.245 4.86667 93.973 4.536 93.6316 4.344C93.2903 4.14133 92.837 4.04 92.2716 4.04H91.5836C91.2636 4.04 91.0183 4.06667 90.8476 4.12C90.677 4.17333 90.5596 4.28533 90.4956 4.456C90.4423 4.62667 90.4156 4.888 90.4156 5.24V13.24C90.4156 13.6453 90.4583 13.9493 90.5436 14.152C90.629 14.3547 90.7943 14.488 91.0396 14.552C91.285 14.616 91.637 14.6533 92.0956 14.664V15C91.7863 14.9787 91.3863 14.968 90.8956 14.968C90.405 14.9573 89.8983 14.952 89.3756 14.952C88.9276 14.952 88.4956 14.9573 88.0796 14.968C87.6636 14.968 87.301 14.9787 86.9916 15V14.68C87.3436 14.6587 87.605 14.616 87.7756 14.552C87.957 14.488 88.0743 14.36 88.1276 14.168C88.1916 13.976 88.2236 13.688 88.2236 13.304V5.368C88.2236 4.97333 88.1916 4.68533 88.1276 4.504C88.0743 4.312 87.957 4.184 87.7756 4.12C87.605 4.04533 87.3436 4.00267 86.9916 3.992V3.672C87.4183 3.68267 87.8663 3.69333 88.3356 3.704C88.8156 3.704 89.285 3.70933 89.7436 3.72C90.213 3.72 90.645 3.72 91.0396 3.72C91.445 3.72 91.7703 3.72 92.0156 3.72C92.5063 3.72 93.061 3.72 93.6796 3.72C94.309 3.70933 94.869 3.69333 95.3596 3.672ZM92.9436 9.24C92.9436 9.24 92.9436 9.29333 92.9436 9.4C92.9436 9.50667 92.9436 9.56 92.9436 9.56H89.9356C89.9356 9.56 89.9356 9.50667 89.9356 9.4C89.9356 9.29333 89.9356 9.24 89.9356 9.24H92.9436ZM93.3116 7.128C93.269 7.736 93.2476 8.2 93.2476 8.52C93.2583 8.84 93.2636 9.13333 93.2636 9.4C93.2636 9.66667 93.269 9.96 93.2796 10.28C93.2903 10.6 93.317 11.064 93.3596 11.672H92.9916C92.949 11.3093 92.869 10.968 92.7516 10.648C92.6343 10.3173 92.453 10.056 92.2076 9.864C91.973 9.66133 91.6316 9.56 91.1836 9.56V9.24C91.5143 9.24 91.7863 9.17067 91.9996 9.032C92.213 8.89333 92.3783 8.71733 92.4956 8.504C92.6236 8.28 92.7196 8.05067 92.7836 7.816C92.8583 7.57067 92.9116 7.34133 92.9436 7.128H93.3116ZM105.807 3.672V3.992C105.466 4.00267 105.204 4.04533 105.023 4.12C104.852 4.184 104.735 4.312 104.671 4.504C104.607 4.68533 104.575 4.97333 104.575 5.368V13.304C104.575 13.688 104.607 13.976 104.671 14.168C104.735 14.36 104.852 14.488 105.023 14.552C105.204 14.616 105.466 14.6587 105.807 14.68V15C105.54 14.9787 105.199 14.968 104.783 14.968C104.367 14.9573 103.946 14.952 103.519 14.952C103.039 14.952 102.591 14.9573 102.175 14.968C101.759 14.968 101.418 14.9787 101.151 15V14.68C101.503 14.6587 101.764 14.616 101.935 14.552C102.116 14.488 102.234 14.36 102.287 14.168C102.351 13.976 102.383 13.688 102.383 13.304V5.368C102.383 4.97333 102.351 4.68533 102.287 4.504C102.234 4.312 102.116 4.184 101.935 4.12C101.764 4.04533 101.503 4.00267 101.151 3.992V3.672C101.418 3.68267 101.759 3.69333 102.175 3.704C102.591 3.71467 103.039 3.72 103.519 3.72C103.946 3.72 104.367 3.71467 104.783 3.704C105.199 3.69333 105.54 3.68267 105.807 3.672ZM47.944 20.672C47.9013 21.1093 47.8693 21.536 47.848 21.952C47.8373 22.3573 47.832 22.6667 47.832 22.88C47.832 23.0827 47.8373 23.28 47.848 23.472C47.8587 23.6533 47.8693 23.808 47.88 23.936H47.512C47.4267 23.2 47.288 22.624 47.096 22.208C46.904 21.7813 46.6427 21.4827 46.312 21.312C45.992 21.1307 45.5707 21.04 45.048 21.04H44.168C43.848 21.04 43.6027 21.0667 43.432 21.12C43.2613 21.1733 43.144 21.2853 43.08 21.456C43.0267 21.6267 43 21.888 43 22.24V30.432C43 30.7733 43.0267 31.0347 43.08 31.216C43.144 31.3867 43.2613 31.4987 43.432 31.552C43.6027 31.6053 43.848 31.632 44.168 31.632H45.08C45.624 31.632 46.0773 31.5307 46.44 31.328C46.8133 31.1253 47.112 30.7947 47.336 30.336C47.56 29.8667 47.7253 29.2267 47.832 28.416H48.2C48.168 28.7467 48.152 29.1733 48.152 29.696C48.152 29.92 48.1573 30.2453 48.168 30.672C48.1893 31.0987 48.2213 31.5413 48.264 32C47.72 31.9787 47.1067 31.968 46.424 31.968C45.7413 31.9573 45.1333 31.952 44.6 31.952C44.3547 31.952 44.0293 31.952 43.624 31.952C43.2293 31.952 42.7973 31.9573 42.328 31.968C41.8693 31.968 41.4 31.9733 40.92 31.984C40.4507 31.984 40.0027 31.9893 39.576 32V31.68C39.928 31.6587 40.1893 31.616 40.36 31.552C40.5413 31.488 40.6587 31.36 40.712 31.168C40.776 30.976 40.808 30.688 40.808 30.304V22.368C40.808 21.9733 40.776 21.6853 40.712 21.504C40.6587 21.312 40.5413 21.184 40.36 21.12C40.1893 21.0453 39.928 21.0027 39.576 20.992V20.672C40.0027 20.6827 40.4507 20.6933 40.92 20.704C41.4 20.704 41.8693 20.7093 42.328 20.72C42.7973 20.72 43.2293 20.72 43.624 20.72C44.0293 20.72 44.3547 20.72 44.6 20.72C45.0907 20.72 45.6453 20.72 46.264 20.72C46.8933 20.7093 47.4533 20.6933 47.944 20.672ZM45.368 26.144C45.368 26.144 45.368 26.1973 45.368 26.304C45.368 26.4107 45.368 26.464 45.368 26.464H42.52C42.52 26.464 42.52 26.4107 42.52 26.304C42.52 26.1973 42.52 26.144 42.52 26.144H45.368ZM45.832 24.032C45.7893 24.64 45.768 25.104 45.768 25.424C45.7787 25.744 45.784 26.0373 45.784 26.304C45.784 26.5707 45.7893 26.864 45.8 27.184C45.8107 27.504 45.8373 27.968 45.88 28.576H45.512C45.4587 28.2133 45.3733 27.872 45.256 27.552C45.1493 27.2213 44.9733 26.96 44.728 26.768C44.4933 26.5653 44.152 26.464 43.704 26.464V26.144C44.0347 26.144 44.3013 26.0747 44.504 25.936C44.7173 25.7973 44.888 25.6213 45.016 25.408C45.144 25.184 45.24 24.9547 45.304 24.72C45.3787 24.4747 45.432 24.2453 45.464 24.032H45.832ZM58.296 20.672V21.008C57.7947 21.008 57.48 21.056 57.352 21.152C57.224 21.248 57.2347 21.4133 57.384 21.648L63.608 30.864C63.8107 31.1733 63.976 31.3813 64.104 31.488C64.2427 31.584 64.424 31.6427 64.648 31.664V32C64.456 31.9893 64.1787 31.9787 63.816 31.968C63.464 31.9467 63.1013 31.936 62.728 31.936C62.2587 31.936 61.7893 31.9467 61.32 31.968C60.8507 31.9787 60.4987 31.9893 60.264 32V31.664C60.7547 31.664 61.0747 31.632 61.224 31.568C61.3733 31.4933 61.3733 31.344 61.224 31.12L54.968 21.808C54.7547 21.4987 54.584 21.2907 54.456 21.184C54.3387 21.0773 54.1627 21.0187 53.928 21.008V20.672C54.12 20.6827 54.4027 20.6987 54.776 20.72C55.1493 20.7307 55.528 20.736 55.912 20.736C56.3707 20.736 56.8133 20.7307 57.24 20.72C57.6667 20.6987 58.0187 20.6827 58.296 20.672ZM58.68 26.256C58.68 26.256 58.6907 26.2933 58.712 26.368C58.7333 26.432 58.7547 26.5013 58.776 26.576C58.808 26.64 58.824 26.672 58.824 26.672L57.08 29.12C56.6747 29.6853 56.4507 30.1547 56.408 30.528C56.3653 30.9013 56.4667 31.184 56.712 31.376C56.968 31.5573 57.3253 31.6587 57.784 31.68V32C57.6347 31.9893 57.448 31.984 57.224 31.984C57.0107 31.9733 56.7867 31.968 56.552 31.968C56.328 31.9573 56.1093 31.952 55.896 31.952C55.6827 31.952 55.512 31.952 55.384 31.952C55.0853 31.952 54.8133 31.9573 54.568 31.968C54.3227 31.968 54.1147 31.9787 53.944 32V31.68C54.3067 31.584 54.664 31.3867 55.016 31.088C55.368 30.7893 55.7253 30.3893 56.088 29.888L58.68 26.256ZM64.056 20.672V20.992C63.7147 21.0773 63.3787 21.264 63.048 21.552C62.7173 21.84 62.4027 22.1867 62.104 22.592L59.512 26.176C59.512 26.176 59.4907 26.112 59.448 25.984C59.416 25.8453 59.4 25.776 59.4 25.776L61.112 23.392C61.5067 22.848 61.7413 22.4053 61.816 22.064C61.8907 21.712 61.8267 21.4507 61.624 21.28C61.4213 21.1093 61.1013 21.0133 60.664 20.992V20.672C60.8667 20.6827 61.0853 20.6933 61.32 20.704C61.5547 20.704 61.784 20.7093 62.008 20.72C62.232 20.72 62.4347 20.72 62.616 20.72C62.9147 20.72 63.1867 20.7147 63.432 20.704C63.6773 20.6933 63.8853 20.6827 64.056 20.672ZM69.926 20.672C70.1927 20.6827 70.534 20.6933 70.95 20.704C71.366 20.7147 71.782 20.72 72.198 20.72C72.7207 20.72 73.2167 20.7147 73.686 20.704C74.1553 20.6933 74.486 20.688 74.678 20.688C76.1073 20.688 77.1687 20.9813 77.862 21.568C78.566 22.1547 78.918 22.912 78.918 23.84C78.918 24.224 78.8487 24.6293 78.71 25.056C78.5713 25.472 78.3313 25.8613 77.99 26.224C77.6487 26.576 77.1793 26.864 76.582 27.088C75.9953 27.312 75.2433 27.424 74.326 27.424H72.726V27.104H74.166C74.838 27.104 75.35 26.96 75.702 26.672C76.0647 26.384 76.3047 26.0053 76.422 25.536C76.55 25.0667 76.614 24.56 76.614 24.016C76.614 23.0027 76.4487 22.2453 76.118 21.744C75.7873 21.2427 75.2167 20.992 74.406 20.992C73.9687 20.992 73.6807 21.0827 73.542 21.264C73.414 21.4453 73.35 21.8133 73.35 22.368V30.24C73.35 30.6453 73.3927 30.9493 73.478 31.152C73.5633 31.3547 73.7287 31.488 73.974 31.552C74.2193 31.616 74.5713 31.6533 75.03 31.664V32C74.7207 31.9787 74.3207 31.968 73.83 31.968C73.3393 31.9573 72.8327 31.952 72.31 31.952C71.862 31.952 71.43 31.9573 71.014 31.968C70.598 31.968 70.2353 31.9787 69.926 32V31.68C70.278 31.6587 70.5393 31.616 70.71 31.552C70.8913 31.488 71.0087 31.36 71.062 31.168C71.126 30.976 71.158 30.688 71.158 30.304V22.368C71.158 21.9733 71.126 21.6853 71.062 21.504C71.0087 21.312 70.8913 21.184 70.71 21.12C70.5393 21.0453 70.278 21.0027 69.926 20.992V20.672Z" fill="#F3C469"/>
</svg>

<svg width="106" height="34" viewBox="0 0 106 34" fill="none" xmlns="http://www.w3.org/2000/svg"><path d="M25.454 4.165L6.364 4a2.545 2.545 0 00-2.546 2.545v19.091m22.744-15.272l.165 19.09A2.546 2.546 0 0124.182 32H5.09" stroke="#F3C469" stroke-linejoin="round"/><path d="M21.47 4l.166 19.09a2.545 2.545 0 01-2.545 2.546H0" stroke="#F3C469" stroke-linejoin="round"/><path d="M39.576 3.672c.267.01.608.021 1.024.032.416.01.832.016 1.248.016.523 0 1.019-.005 1.488-.016.47-.01.8-.016.992-.016 1.43 0 2.49.293 3.184.88.704.587 1.056 1.344 1.056 2.272 0 .384-.07.79-.208 1.216a3.165 3.165 0 01-.72 1.168c-.341.352-.81.64-1.408.864-.587.224-1.339.336-2.256.336h-1.6v-.32h1.44c.672 0 1.184-.144 1.536-.432.363-.288.603-.667.72-1.136a5.76 5.76 0 00.192-1.52c0-1.013-.165-1.77-.496-2.272-.33-.501-.901-.752-1.712-.752-.437 0-.725.09-.864.272-.128.181-.192.55-.192 1.104v7.872c0 .405.043.71.128.912.085.203.25.336.496.4.245.064.597.101 1.056.112V15c-.31-.021-.71-.032-1.2-.032-.49-.01-.997-.016-1.52-.016-.448 0-.88.005-1.296.016-.416 0-.779.01-1.088.032v-.32c.352-.021.613-.064.784-.128a.534.534 0 00.352-.384c.064-.192.096-.48.096-.864V5.368c0-.395-.032-.683-.096-.864a.534.534 0 00-.352-.384c-.17-.075-.432-.117-.784-.128v-.32zm14.706 0c.267.01.608.021 1.024.032.416.01.832.016 1.248.016.523 0 1.019-.005 1.488-.016.47-.01.8-.016.992-.016.96 0 1.75.117 2.368.352.63.224 1.099.544 1.408.96.31.416.464.907.464 1.472 0 .352-.07.715-.208 1.088-.138.363-.378.699-.72 1.008-.341.31-.81.565-1.408.768-.586.192-1.338.288-2.256.288h-1.536v-.32h1.376c.672 0 1.184-.117 1.536-.352.363-.245.603-.565.72-.96.128-.405.192-.853.192-1.344 0-.843-.165-1.493-.496-1.952-.33-.47-.901-.704-1.712-.704-.437 0-.725.09-.864.272-.128.181-.192.55-.192 1.104v7.936c0 .384.032.672.096.864a.58.58 0 00.352.384c.182.064.443.107.784.128V15a13.326 13.326 0 00-1.024-.032 52.478 52.478 0 00-2.608 0c-.416 0-.757.01-1.024.032v-.32c.352-.021.614-.064.784-.128a.534.534 0 00.352-.384c.064-.192.096-.48.096-.864V5.368c0-.395-.032-.683-.096-.864a.534.534 0 00-.352-.384c-.17-.075-.432-.117-.784-.128v-.32zm2.864 5.68c.502.021.918.048 1.248.08.342.021.63.043.864.064.246.021.464.048.656.08.886.085 1.536.293 1.952.624.427.32.71.81.848 1.472l.368 1.648c.096.437.198.752.304.944a.524.524 0 00.496.256c.15 0 .278-.037.384-.112a1.89 1.89 0 00.32-.336l.224.192c-.266.33-.55.576-.848.736-.298.15-.677.224-1.136.224-.512 0-.944-.117-1.296-.352-.352-.245-.592-.704-.72-1.376l-.304-1.6a8.654 8.654 0 00-.304-1.184c-.106-.341-.256-.608-.448-.8-.192-.192-.474-.288-.848-.288h-1.728l-.032-.272zm18.396-5.904c1.088 0 2.043.23 2.864.688A4.686 4.686 0 0180.31 6.12c.459.853.688 1.893.688 3.12 0 1.195-.234 2.24-.704 3.136a5.108 5.108 0 01-1.936 2.096c-.821.501-1.765.752-2.832.752-1.088 0-2.042-.23-2.864-.688a4.784 4.784 0 01-1.92-1.984c-.448-.864-.672-1.904-.672-3.12 0-1.195.235-2.24.704-3.136.47-.896 1.115-1.595 1.936-2.096.822-.501 1.766-.752 2.832-.752zm-.064.288c-.629 0-1.178.24-1.648.72-.458.48-.816 1.141-1.072 1.984-.256.843-.384 1.819-.384 2.928 0 1.13.144 2.117.432 2.96.288.832.678 1.477 1.168 1.936.491.448 1.03.672 1.616.672.63 0 1.174-.24 1.632-.72.47-.48.832-1.141 1.088-1.984.256-.853.384-1.83.384-2.928 0-1.141-.144-2.128-.432-2.96-.288-.832-.677-1.472-1.168-1.92-.48-.459-1.018-.688-1.616-.688zm19.882-.064c-.043.459-.075.901-.096 1.328-.011.427-.016.752-.016.976 0 .245.005.475.016.688.01.213.021.4.032.56h-.368c-.118-.8-.278-1.43-.48-1.888-.203-.47-.475-.8-.816-.992-.342-.203-.795-.304-1.36-.304h-.688c-.32 0-.566.027-.736.08a.528.528 0 00-.352.336c-.054.17-.08.432-.08.784v8c0 .405.042.71.128.912.085.203.25.336.496.4.245.064.597.101 1.056.112V15c-.31-.021-.71-.032-1.2-.032-.491-.01-.998-.016-1.52-.016-.448 0-.88.005-1.296.016-.416 0-.779.01-1.088.032v-.32c.352-.021.613-.064.784-.128a.534.534 0 00.352-.384c.064-.192.096-.48.096-.864V5.368c0-.395-.032-.683-.096-.864a.534.534 0 00-.352-.384c-.171-.075-.432-.117-.784-.128v-.32l1.344.032c.48 0 .949.005 1.408.016h3.936c.629-.01 1.189-.027 1.68-.048zM92.944 9.24v.32h-3.008v-.32h3.008zm.368-2.112a21.54 21.54 0 00-.064 1.392c.01.32.016.613.016.88s.005.56.016.88c.01.32.037.784.08 1.392h-.368a4.48 4.48 0 00-.24-1.024 1.68 1.68 0 00-.544-.784c-.235-.203-.576-.304-1.024-.304v-.32c.33 0 .602-.07.816-.208.213-.139.378-.315.496-.528.128-.224.224-.453.288-.688a4.84 4.84 0 00.16-.688h.368zm12.495-3.456v.32c-.341.01-.603.053-.784.128a.577.577 0 00-.352.384c-.064.181-.096.47-.096.864v7.936c0 .384.032.672.096.864.064.192.181.32.352.384.181.064.443.107.784.128V15a13.332 13.332 0 00-1.024-.032 52.478 52.478 0 00-2.608 0c-.416 0-.757.01-1.024.032v-.32c.352-.021.613-.064.784-.128a.534.534 0 00.352-.384c.064-.192.096-.48.096-.864V5.368c0-.395-.032-.683-.096-.864a.534.534 0 00-.352-.384c-.171-.075-.432-.117-.784-.128v-.32c.267.01.608.021 1.024.032a52.616 52.616 0 002.608 0c.416-.01.757-.021 1.024-.032zm-57.863 17a27.81 27.81 0 00-.096 1.28c-.01.405-.016.715-.016.928 0 .203.005.4.016.592.01.181.021.336.032.464h-.368c-.085-.736-.224-1.312-.416-1.728-.192-.427-.453-.725-.784-.896-.32-.181-.741-.272-1.264-.272h-.88c-.32 0-.565.027-.736.08a.527.527 0 00-.352.336c-.053.17-.08.432-.08.784v8.192c0 .341.027.603.08.784.064.17.181.283.352.336.17.053.416.08.736.08h.912c.544 0 .997-.101 1.36-.304.373-.203.672-.533.896-.992.224-.47.39-1.11.496-1.92h.368c-.032.33-.048.757-.048 1.28 0 .224.005.55.016.976.021.427.053.87.096 1.328a47.468 47.468 0 00-1.84-.032c-.683-.01-1.29-.016-1.824-.016h-.976c-.395 0-.827.005-1.296.016-.459 0-.928.005-1.408.016-.47 0-.917.005-1.344.016v-.32c.352-.021.613-.064.784-.128a.534.534 0 00.352-.384c.064-.192.096-.48.096-.864v-7.936c0-.395-.032-.683-.096-.864a.534.534 0 00-.352-.384c-.17-.075-.432-.117-.784-.128v-.32l1.344.032c.48 0 .95.005 1.408.016h3.936c.63-.01 1.19-.027 1.68-.048zm-2.576 5.472v.32H42.52v-.32h2.848zm.464-2.112a21.466 21.466 0 00-.064 1.392c.01.32.016.613.016.88s.005.56.016.88c.01.32.037.784.08 1.392h-.368a5.138 5.138 0 00-.256-1.024 1.582 1.582 0 00-.528-.784c-.235-.203-.576-.304-1.024-.304v-.32c.33 0 .597-.07.8-.208.213-.139.384-.315.512-.528.128-.224.224-.453.288-.688a4.84 4.84 0 00.16-.688h.368zm12.464-3.36v.336c-.501 0-.816.048-.944.144-.128.096-.117.261.032.496l6.224 9.216c.203.31.368.517.496.624.139.096.32.155.544.176V32c-.192-.01-.47-.021-.832-.032a18.02 18.02 0 00-1.088-.032c-.47 0-.939.01-1.408.032-.47.01-.821.021-1.056.032v-.336c.49 0 .81-.032.96-.096.15-.075.15-.224 0-.448l-6.256-9.312c-.213-.31-.384-.517-.512-.624-.117-.107-.293-.165-.528-.176v-.336l.848.048c.373.01.752.016 1.136.016.459 0 .901-.005 1.328-.016.427-.021.779-.037 1.056-.048zm.384 5.584l.032.112c.021.064.043.133.064.208l.048.096-1.744 2.448c-.405.565-.63 1.035-.672 1.408-.043.373.059.656.304.848.256.181.613.283 1.072.304V32a8.076 8.076 0 00-.56-.016 14.31 14.31 0 00-.672-.016c-.224-.01-.443-.016-.656-.016h-.512c-.299 0-.57.005-.816.016-.245 0-.453.01-.624.032v-.32c.363-.096.72-.293 1.072-.592.352-.299.71-.699 1.072-1.2l2.592-3.632zm5.376-5.584v.32c-.341.085-.677.272-1.008.56-.33.288-.645.635-.944 1.04l-2.592 3.584-.064-.192-.048-.208 1.712-2.384c.395-.544.63-.987.704-1.328.075-.352.01-.613-.192-.784-.203-.17-.523-.267-.96-.288v-.32l.656.032c.235 0 .464.005.688.016h.608c.299 0 .57-.005.816-.016.245-.01.453-.021.624-.032zm5.87 0c.267.01.608.021 1.024.032.416.01.832.016 1.248.016.523 0 1.019-.005 1.488-.016.47-.01.8-.016.992-.016 1.43 0 2.49.293 3.184.88.704.587 1.056 1.344 1.056 2.272 0 .384-.07.79-.208 1.216a3.165 3.165 0 01-.72 1.168c-.341.352-.81.64-1.408.864-.587.224-1.339.336-2.256.336h-1.6v-.32h1.44c.672 0 1.184-.144 1.536-.432.363-.288.603-.667.72-1.136a5.76 5.76 0 00.192-1.52c0-1.013-.165-1.77-.496-2.272-.33-.501-.901-.752-1.712-.752-.437 0-.725.09-.864.272-.128.181-.192.55-.192 1.104v7.872c0 .405.043.71.128.912.085.203.25.336.496.4.245.064.597.101 1.056.112V32c-.31-.021-.71-.032-1.2-.032-.49-.01-.997-.016-1.52-.016-.448 0-.88.005-1.296.016-.416 0-.779.01-1.088.032v-.32c.352-.021.613-.064.784-.128a.534.534 0 00.352-.384c.064-.192.096-.48.096-.864v-7.936c0-.395-.032-.683-.096-.864a.534.534 0 00-.352-.384c-.17-.075-.432-.117-.784-.128v-.32z" fill="#F3C469"/></svg>
